!!!!SEGMENT: Mlu3005-Et_dont_venes_vous.krn
!!!id: Mlu3005
!!!AGN: Chanson
!!!SCT: Bernstein (1984)
!!!voices: 3
!!!COM: Pierre Moulu
!!!OTL: Et dont venés vous
**kern	**kern	**kern
*part3	*part2	*part1
*staff3	*staff2	*staff1
*I"Bassus	*I"Tenor	*I"Superius
*I'B	*I'T	*I'S
*clefF4	*clefGv2	*clefGv2
*k[b-]	*k[b-]	*k[b-]
*F:	*F:	*F:
*M2/1	*M2/1	*M2/1
*met(C|)	*met(C|)	*met(C|)
=1	=1	=1
0r	0r	1.F
.	.	2F
=2	=2	=2
0r	0r	1A
.	.	1B-y
=3	=3	=3
1.FF	0r	2.c
.	.	4B-y
.	.	4A
.	.	4G
2FF	.	[2A
=4	=4	=4
1AA	1.F	4A]
.	.	4G
.	.	4F
.	.	4E
1BB-y	.	1D
.	2F	.
=5	=5	=5
2C	1A	2E
1D	.	1F
.	1B-y	.
4C	.	4E
4BB-y	.	4D
=6	=6	=6
1AA	1.c	2E
.	.	1A
2r	.	.
[2C	4B-y	4G
.	4A	4F
=7	=7	=7
2C]	1G	2.E
2C	.	.
.	.	4F
2C	1r	2G
2C	.	[2A
=8	=8	=8
1D	1r	4A]
.	.	4G
.	.	4F
.	.	4E
2BB-y	[1G	2D
[2C	.	[2E
=9	=9	=9
2C]	2G]	2E]
4BB-y	2G	4D
4AA	.	4C
2BB-y	2G	2D
2C	2G	2E
=10	=10	=10
1FF	1.A	2C
.	.	1F
2r	.	.
[2C	4G	4E
.	4F	4D
=11	=11	=11
2C]	1G	1E
2C	.	.
2.D	1F	[1F
4E	.	.
=12	=12	=12
2F	2r	1F]
4BB-y	1F	.
4C	.	.
4D	.	1r
4E	.	.
[2F	2F	.
=13	=13	=13
4F]	1A	0r
4E	.	.
4D	.	.
4C	.	.
1D	1B-y	.
=14	=14	=14
2C	1.c	0r
1F	.	.
2F	4B-y	.
.	4A	.
=15	=15	=15
2.E	1G	1.C
4D	.	.
2E	2r	.
[2C	[2G	2C
=16	=16	=16
2C]	2G]	1D
2BB-y	2G	.
1C	2G	1E
.	2G	.
=17	=17	=17
1FF	1.A	1.F
2r	.	.
[2F	4G	4E
.	4F	4D
=18	=18	=18
2F]	1G	1C
2E	.	.
2F	[1F	2r
[2A	.	[2c
=19	=19	=19
2A]	1F]	2c]
4G	.	2c
4F	.	.
2E	1r	2c
2F	.	2c
=20	=20	=20
1BB-y	2r	1d
.	1G	.
2r	.	2B-y
[2C	2G	[2e-X
=21	=21	=21
2C]	2G	4e-]
.	.	4d
2C	2G	2.c
2C	[1A	.
.	.	4B-y
2C	.	4A
.	.	4G
=22	=22	=22
1D	2A]	2F
.	4G	2.f
.	4F	.
1C	1G	.
.	.	8eL
.	.	8dJ
.	.	2e
=23	=23	=23
2.FF	[0F	0f
4GG	.	.
2AA	.	.
[2BB-y	.	.
=24	=24	=24
4BB-]	1F]	2r
4AA	.	.
2.D	.	1F
.	1r	.
4C	.	.
2AA	.	2A
=25	=25	=25
2BB-y	0r	2G
2D	.	2F
2C	.	2E
[2F	.	2F
=26	=26	=26
2F]	0r	1G
4E	.	.
4D	.	.
1E	.	4G
.	.	4A
.	.	4B-y
.	.	4G
=27	=27	=27
2F	1r	1A
4FF	.	.
4GG	.	.
4AA	2r	1F
4FF	.	.
[2BB-y	[2F	.
=28	=28	=28
2BB-]	2F]	2r
2AA	2A	2C
2BB-y	2G	4D
.	.	4E
2D	2F	4F
.	.	4D
=29	=29	=29
1.C	2.E	2.G
.	4F	4F
.	1G	2E
4BB-y	.	4D
4AA	.	4C
=30	=30	=30
1GG	4G	2.D
.	4A	.
.	4B-y	.
.	4G	4E
1FF	1A	2F
.	.	[2c
=31	=31	=31
2r	1F	2c]
1BB-y	.	2.d
.	1r	.
.	.	4c
2D	.	2B-y
=32	=32	=32
2C	2r	2A
2BB-y	1F	2B-y
2.AA	.	[1c
.	2A	.
4BB-y	.	.
=33	=33	=33
1C	2.G	2c]
.	.	4B-y
.	4F	4A
4C	1E	2G
4D	.	.
4E	.	[2c
4C	.	.
=34	=34	=34
1D	1F	2c]
.	.	2BnXi
1C	1G	2c
.	.	2C
=35	=35	=35
0r	4G	4E
.	4A	4F
.	4B-y	4G
.	4G	4E
.	2A	2F
.	[2F	2A
=36	=36	=36
2r	4F]	1G
.	8EL	.
.	8DJ	.
2C	2E	.
4D	1F	2r
4E	.	.
4F	.	2F
4D	.	.
=37	=37	=37
2E	1r	4G
.	.	4A
2.C	.	4B-y
.	.	4G
.	2r	2A
4AA	.	.
2BB-y	2F	[2F
=38	=38	=38
1GG	4G	4F]
.	4A	8EL
.	.	8DJ
.	4B-y	2E
.	4G	.
2FF	2A	1F
2AA	[2F	.
=39	=39	=39
4BB-y	2F]	2r
4C	.	.
4D	4E	1G
4BB-y	4D	.
2C	1E	.
2C	.	2G
=40	=40	=40
0FF	1F	2.A
.	.	4B-y
.	2r	[1c
.	[2F	.
=41	=41	=41
2r	2F]	1c]
1FF	2F	.
.	2.A	2r
2FF	.	[2C
.	4B-y	.
=42	=42	=42
2.AA	2.c	2C]
.	.	2C
4BB-y	8B-yL	.
.	8AJ	.
2.C	1G	2.E
8BB-yL	.	4F
8AAJ	.	.
=43	=43	=43
1GG	2r	2.G
.	1G	.
.	.	4F
2r	.	4E
.	.	4D
[2C	2G	[2E
=44	=44	=44
2C]	2G	4E]
.	.	4C
2C	2G	1c
2C	1A	.
2C	.	2c
=45	=45	=45
2.D	0F	2A
.	.	2A
4C	.	.
4BB-y	.	2B-y
4AA	.	.
[2BB-y	.	[2d
=46	=46	=46
2BB-]	2r	2d]
4AA	1F	4c
4GG	.	4B-y
[1FF	.	1A
.	2F	.
=47	=47	=47
0FF_	2.A	2r
.	.	1F
.	4B-y	.
.	2.c	.
.	.	2F
.	4B-y	.
=48	=48	=48
1FF]	4c	2.A
.	4B-y	.
.	4A	.
.	4G	4B-y
2r	2F	[1c
[2C	[2G	.
=49	=49	=49
2C]	4G]	2c]
.	4E	.
2C	1A	4B-y
.	.	4A
2D	.	1B-y
2E	2G	.
=50	=50	=50
1.F	0A	1A
.	.	2r
4E	.	[2c
4D	.	.
=51	=51	=51
2C	0r	2c]
1F	.	2c
.	.	2c
2F	.	2c
=52	=52	=52
2F	0r	2.d
2F	.	.
.	.	4c
2.G	.	4B-y
.	.	4A
.	.	2B-y
4F	.	.
=53	=53	=53
4E	2r	2G
4D	.	.
1F	1c	1A
4E	2c	4G
4D	.	4F
=54	=54	=54
1C	2c	2G
.	2c	2A
2r	2.d	2.B-y
[2BB-y	.	.
.	4c	4c
=55	=55	=55
2BB-]	2B-y	4d
.	.	4e
2D	2.A	2f
2C	.	2.e
.	4B-y	.
2AA	2c	.
.	.	8dL
.	.	8cJ
=56	=56	=56
2BB-y	2.B-y	2d
2BB-y	.	1f
.	4A	.
1C	1G	.
.	.	2e
=57	=57	=57
4D	1F	1f
4E	.	.
4F	.	.
4D	.	.
2E	2r	2r
2F	[2F	[2c
=58	=58	=58
1FF	2F]	2c]
.	2A	2c
1r	2G	2B-y
.	2F	2A
=59	=59	=59
2C	2E	2G
2D	2F	2F
1C	1G	1E
=60	=60	=60
4BB-y	4G	1r
4C	4A	.
4D	4B-y	.
4BB-y	4G	.
2C	2A	2r
2AA	[2F	2F
=61	=61	=61
2GG	4F]	4G
.	8EL	4A
.	8DJ	.
2GG	2E	4B-y
.	.	4G
[1FF	1F	2A
.	.	2F
=62	=62	=62
0FF]	2r	2r
.	1F	1c
.	2A	2c
=63	=63	=63
0r	2G	2B-y
.	2F	2A
.	2E	2G
.	2F	2F
=64	=64	=64
2r	0G	1E
1C	.	.
.	.	2r
2C	.	2C
=65	=65	=65
2BB-y	2r	4D
.	.	4E
2AA	2F	4F
.	.	4D
2GG	4G	2E
.	4A	.
2GG	4B-y	2E
.	4G	.
=66	=66	=66
0FF	2A	2F
.	2F	2C
.	2r	4D
.	.	4E
.	2F	4F
.	.	4D
=67	=67	=67
2r	4G	2E
.	4A	.
2C	4B-y	2E
.	4G	.
4D	2A	1F
4E	.	.
4F	2F	.
4D	.	.
=68	=68	=68
2E	2G	2.c
2C	2G	.
.	.	4B-y
2D	2F	4A
.	.	4G
2D	4r	2F
.	4F	.
=69	=69	=69
2C	4G	2F
.	4A	.
4r	4B-y	2E
4C	4G	.
4D	2A	1F
4E	.	.
4F	2F	.
4D	.	.
=70	=70	=70
2E	2G	2r
2C	2G	2c
2D	1F	4A
.	.	4G
2D	.	4A
.	.	4B-y
=71	=71	=71
2C	2r	1c
2.F	2F	.
.	4G	2r
8EL	4A	.
8DJ	.	.
2E	4B-y	2C
.	4G	.
=72	=72	=72
2F	2A	4D
.	.	4E
2D	2F	4F
.	.	4D
1C	2G	2E
.	2G	2C
=73	=73	=73
2FF	[0Fl	1.D
1BB-y	.	.
4AA	.	2C
4GG	.	.
=74	=74	=74
00FFl	00F]	00Cl
==	==	==
*-	*-	*-
!!!system-decoration: [*]
!!!RDF**kern: i = editorial accidental
!!!RDF**kern: l = terminal long
!!!ENC: Benjamin Ory
!!!END: 2023/11/3
!!!EED: Benjamin Ory
!!!EEV: 2023/11/03
!!!YEC: Copyright 2023 Benjamin Ory, All Rights Reserved
!!!ONB: Translated from MusicXML on 2023/11/03
